src/icons/logos/github.svg

<svg width="518" height="220" viewBox="0 0 518 220" fill="none" xmlns="http://www.w3.org/2000/svg">
<path d="M100.175 105.932H56.6557C56.1182 105.932 55.6028 106.146 55.2227 106.526C54.8427 106.906 54.6292 107.421 54.6292 107.959V129.23C54.6292 129.768 54.8422 130.285 55.2219 130.668C55.6015 131.05 56.1169 131.267 56.6557 131.271H73.6293V157.672C73.6293 157.672 69.8207 158.98 59.2571 158.98C46.8251 158.98 29.4634 154.439 29.4634 116.251C29.4634 78.0645 47.5437 73.0486 64.5173 73.0486C79.2057 73.0486 85.5439 75.6356 89.5681 76.8716C89.8619 76.9285 90.1645 76.9201 90.4547 76.847C90.7448 76.774 91.0153 76.638 91.2471 76.4487C91.4789 76.2595 91.6662 76.0216 91.7957 75.7519C91.9253 75.4823 91.9941 75.1874 91.997 74.8882L96.898 54.3359C96.9097 54.0267 96.8449 53.7193 96.7096 53.4411C96.5742 53.1628 96.3724 52.9222 96.1219 52.7406C94.4834 51.5764 84.5091 46 59.3002 46C30.2539 46 0.474609 58.3457 0.474609 117.746C0.474609 177.147 34.5799 185.986 63.31 185.986C87.1105 185.986 101.555 175.824 101.555 175.824C101.782 175.642 101.96 175.406 102.073 175.137C102.185 174.869 102.23 174.576 102.201 174.287V107.944C102.198 107.409 101.982 106.898 101.603 106.521C101.223 106.144 100.71 105.932 100.175 105.932Z" fill="currentColor"/>
<path d="M324.353 53.1143C324.357 52.8476 324.308 52.5829 324.209 52.3354C324.109 52.088 323.962 51.8628 323.774 51.6729C323.587 51.483 323.364 51.3322 323.118 51.2293C322.872 51.1264 322.608 51.0734 322.341 51.0734H297.908C297.641 51.0734 297.376 51.1263 297.13 51.229C296.883 51.3318 296.659 51.4823 296.47 51.672C296.282 51.8617 296.133 52.0868 296.032 52.3344C295.931 52.5819 295.88 52.847 295.882 53.1143V100.442H257.652V53.1143C257.654 52.847 257.603 52.5819 257.502 52.3344C257.401 52.0868 257.252 51.8617 257.063 51.672C256.875 51.4823 256.651 51.3318 256.404 51.229C256.157 51.1263 255.893 51.0734 255.625 51.0734H231.193C230.925 51.0734 230.661 51.1263 230.414 51.229C230.167 51.3318 229.943 51.4823 229.755 51.672C229.566 51.8617 229.417 52.0868 229.316 52.3344C229.215 52.5819 229.164 52.847 229.166 53.1143V181.286C229.166 181.825 229.379 182.342 229.759 182.724C230.138 183.106 230.654 183.323 231.193 183.327H255.625C256.164 183.323 256.68 183.106 257.059 182.724C257.439 182.342 257.652 181.825 257.652 181.286V126.456H295.825L295.753 181.286C295.756 181.826 295.973 182.343 296.355 182.725C296.737 183.107 297.253 183.323 297.794 183.327H322.341C322.607 183.325 322.871 183.271 323.116 183.167C323.361 183.063 323.583 182.913 323.77 182.723C323.957 182.534 324.105 182.309 324.205 182.063C324.305 181.816 324.355 181.552 324.353 181.286V53.1143Z" fill="currentColor"/>
<path d="M146.396 70.0016C146.367 66.8811 145.416 63.8387 143.662 61.2579C141.907 58.677 139.428 56.673 136.537 55.4985C133.646 54.3239 130.472 54.0312 127.415 54.6574C124.358 55.2835 121.554 56.8005 119.357 59.0171C117.161 61.2337 115.669 64.0508 115.071 67.1135C114.472 70.1763 114.794 73.3477 115.994 76.2281C117.195 79.1085 119.221 81.5692 121.818 83.3001C124.415 85.031 127.465 85.9547 130.586 85.9548C132.674 85.9549 134.742 85.5413 136.67 84.7378C138.597 83.9343 140.346 82.7569 141.816 81.2736C143.286 79.7903 144.448 78.0305 145.234 76.0958C146.02 74.1611 146.415 72.0898 146.396 70.0016Z" fill="currentColor"/>
<path d="M144.642 154.237V95.0811C144.642 94.5424 144.429 94.0254 144.05 93.6431C143.67 93.2608 143.155 93.0441 142.616 93.0403H118.183C117.612 93.09 117.08 93.3498 116.69 93.7693C116.3 94.1888 116.079 94.7382 116.07 95.3111V180.107C116.07 182.594 117.623 183.341 119.62 183.341H141.624C144.039 183.341 144.628 182.148 144.628 180.064L144.642 154.237Z" fill="currentColor"/>
<path d="M417.398 93.2272H393.138C392.598 93.2347 392.082 93.4546 391.703 93.8392C391.324 94.2238 391.111 94.7423 391.111 95.2824V158.132C386.675 161.05 381.488 162.617 376.178 162.645C367.411 162.645 365.083 158.664 365.083 150.084V95.2824C365.087 94.7436 364.878 94.2251 364.501 93.8401C364.124 93.4551 363.61 93.2347 363.071 93.2272H338.351C337.811 93.2347 337.295 93.4546 336.916 93.8392C336.537 94.2238 336.324 94.7423 336.324 95.2824V154.209C336.324 179.691 350.538 185.928 370.085 185.928C386.11 185.928 399.03 177.075 399.03 177.075C399.238 178.829 399.54 180.571 399.936 182.292C400.111 182.616 400.367 182.888 400.68 183.082C400.992 183.276 401.35 183.385 401.718 183.399H417.412C417.952 183.391 418.468 183.171 418.847 182.787C419.226 182.402 419.439 181.884 419.439 181.343V95.2824C419.441 95.0132 419.389 94.7463 419.288 94.497C419.186 94.2477 419.036 94.021 418.846 93.83C418.657 93.639 418.431 93.4873 418.182 93.3839C417.934 93.2804 417.667 93.2272 417.398 93.2272Z" fill="currentColor"/>
<path d="M483.87 90.3528C475.731 90.3037 467.727 92.4325 460.687 96.5184V53.1143C460.689 52.847 460.638 52.5819 460.537 52.3344C460.436 52.0868 460.287 51.8617 460.099 51.672C459.911 51.4823 459.687 51.3318 459.44 51.229C459.193 51.1263 458.928 51.0734 458.661 51.0734H434.099C433.831 51.0734 433.567 51.1263 433.32 51.229C433.073 51.3318 432.849 51.4823 432.661 51.672C432.472 51.8617 432.323 52.0868 432.222 52.3344C432.121 52.5819 432.07 52.847 432.072 53.1143V181.286C432.072 181.825 432.285 182.342 432.665 182.724C433.045 183.106 433.56 183.323 434.099 183.327H451.144C451.511 183.324 451.87 183.222 452.183 183.032C452.497 182.843 452.754 182.572 452.926 182.249C453.416 180.303 453.762 178.324 453.961 176.327C453.961 176.327 464.022 185.856 483.008 185.856C505.328 185.856 518.133 174.531 518.133 135.022C518.133 95.5124 497.696 90.3528 483.87 90.3528ZM474.284 162.573C469.296 162.443 464.426 161.033 460.141 158.477V117.89C464.005 115.686 468.281 114.302 472.703 113.823C481.455 113.032 489.949 115.677 489.949 136.56C489.892 158.578 486.083 162.918 474.284 162.573Z" fill="currentColor"/>
<path d="M215.037 92.9972H196.669V68.7225C196.669 67.8027 196.195 67.2853 195.132 67.2853H170.066C169.089 67.2853 168.629 67.7164 168.629 68.7225V93.8021C168.629 93.8021 156.082 96.8346 155.234 97.0789C154.817 97.2081 154.452 97.4677 154.194 97.8195C153.935 98.1713 153.796 98.5969 153.797 99.0336V114.843C153.795 115.11 153.846 115.375 153.947 115.623C154.048 115.87 154.197 116.096 154.385 116.285C154.574 116.475 154.798 116.626 155.045 116.728C155.291 116.831 155.556 116.884 155.823 116.884H168.658V154.798C168.658 182.953 188.405 185.727 201.714 185.727C206.623 185.561 211.49 184.749 216.187 183.312C216.542 183.158 216.843 182.9 217.048 182.571C217.253 182.243 217.354 181.86 217.337 181.473V164.14C217.333 163.601 217.119 163.084 216.741 162.701C216.362 162.317 215.849 162.096 215.31 162.085C214.232 162.085 211.501 162.53 208.67 162.53C199.659 162.53 196.597 158.333 196.597 152.901V116.855H215.037C215.304 116.855 215.569 116.802 215.816 116.7C216.063 116.597 216.287 116.446 216.475 116.257C216.663 116.067 216.812 115.842 216.913 115.594C217.014 115.347 217.065 115.082 217.064 114.814V95.0668C217.067 94.7976 217.018 94.5303 216.918 94.2803C216.818 94.0303 216.669 93.8026 216.481 93.6102C216.293 93.4178 216.068 93.2646 215.82 93.1594C215.572 93.0542 215.306 92.9991 215.037 92.9972Z" fill="currentColor"/>
</svg>

<svg xmlns="http://www.w3.org/2000/svg" width="518" height="220" fill="none">
    <path fill="currentColor"
        d="M100.175 105.932h-43.52a2.027 2.027 0 0 0-2.026 2.027v21.271a2.043 2.043 0 0 0 2.027 2.041h16.973v26.401s-3.808 1.308-14.372 1.308c-12.432 0-29.794-4.541-29.794-42.729 0-38.187 18.08-43.202 35.054-43.202 14.689 0 21.027 2.587 25.051 3.823a2.04 2.04 0 0 0 2.429-1.984l4.901-20.552a1.883 1.883 0 0 0-.776-1.595C94.483 51.576 84.509 46 59.3 46 30.254 46 .475 58.346.475 117.746c0 59.401 34.105 68.24 62.835 68.24 23.8 0 38.245-10.162 38.245-10.162a1.748 1.748 0 0 0 .646-1.537v-66.343a2.024 2.024 0 0 0-2.026-2.012ZM324.353 53.114a2.016 2.016 0 0 0-.579-1.441 2.008 2.008 0 0 0-1.433-.6h-24.433a2.021 2.021 0 0 0-1.438.599 2.031 2.031 0 0 0-.588 1.442v47.328h-38.23V53.114a2.024 2.024 0 0 0-2.027-2.04h-24.432a2.026 2.026 0 0 0-2.027 2.04v128.172a2.039 2.039 0 0 0 2.027 2.041h24.432a2.042 2.042 0 0 0 2.027-2.041v-54.83h38.173l-.072 54.83a2.052 2.052 0 0 0 2.041 2.041h24.547a2.024 2.024 0 0 0 2.012-2.041V53.114ZM146.396 70.002a15.815 15.815 0 0 0-18.981-15.344 15.813 15.813 0 0 0-12.344 12.456 15.81 15.81 0 0 0 21.599 17.624 15.813 15.813 0 0 0 9.726-14.736ZM144.642 154.237V95.081a2.043 2.043 0 0 0-2.026-2.04h-24.433a2.312 2.312 0 0 0-2.113 2.27v84.796c0 2.487 1.553 3.234 3.55 3.234h22.004c2.415 0 3.004-1.193 3.004-3.277l.014-25.827ZM417.398 93.227h-24.26a2.055 2.055 0 0 0-2.027 2.055v62.85a27.434 27.434 0 0 1-14.933 4.513c-8.767 0-11.095-3.981-11.095-12.561V95.282a2.04 2.04 0 0 0-2.012-2.055h-24.72a2.055 2.055 0 0 0-2.027 2.055v58.927c0 25.482 14.214 31.719 33.761 31.719 16.025 0 28.945-8.853 28.945-8.853a49 49 0 0 0 .906 5.217 2.106 2.106 0 0 0 1.782 1.107h15.694a2.058 2.058 0 0 0 2.027-2.056v-86.06a2.052 2.052 0 0 0-.593-1.453 2.029 2.029 0 0 0-1.448-.603ZM483.87 90.353a45.636 45.636 0 0 0-23.183 6.165V53.114a2.024 2.024 0 0 0-2.026-2.04h-24.562a2.026 2.026 0 0 0-2.027 2.04v128.172a2.039 2.039 0 0 0 2.027 2.041h17.045a2.034 2.034 0 0 0 1.782-1.078c.49-1.946.836-3.925 1.035-5.922 0 0 10.061 9.529 29.047 9.529 22.32 0 35.125-11.325 35.125-50.834 0-39.51-20.437-44.67-34.263-44.67Zm-9.586 72.22a29.085 29.085 0 0 1-14.143-4.096V117.89a32.394 32.394 0 0 1 12.562-4.067c8.752-.791 17.246 1.854 17.246 22.737-.057 22.018-3.866 26.358-15.665 26.013ZM215.037 92.997h-18.368V68.722c0-.92-.474-1.437-1.537-1.437h-25.066c-.977 0-1.437.431-1.437 1.438v25.08s-12.547 3.032-13.395 3.276a2.038 2.038 0 0 0-1.437 1.955v15.809a2.028 2.028 0 0 0 2.026 2.041h12.835v37.914c0 28.155 19.747 30.929 33.056 30.929a55.937 55.937 0 0 0 14.473-2.415 1.91 1.91 0 0 0 1.15-1.839V164.14a2.072 2.072 0 0 0-2.027-2.055c-1.078 0-3.809.445-6.64.445-9.011 0-12.073-4.197-12.073-9.629v-36.046h18.44a2.035 2.035 0 0 0 1.876-1.261 2.04 2.04 0 0 0 .151-.78V95.067a2.055 2.055 0 0 0-.583-1.457 2.036 2.036 0 0 0-1.444-.613Z" />
</svg>
